svg/hockey_sticks.svg

<svg xmlns="http://www.w3.org/2000/svg" viewBox="0 0 24 24"><path d="M7.58 3 5.05 4.61l3.99 6.26 1.78-2.79zm8.85 0L7.5 17H2v4h6.5L18.96 4.61zm-1.46 11.59-1.78 2.79L15.5 21H22v-4h-5.5z"/></svg>

<?xml version="1.0" encoding="UTF-8"?><!DOCTYPE svg PUBLIC "-//W3C//DTD SVG 1.1//EN" "http://www.w3.org/Graphics/SVG/1.1/DTD/svg11.dtd"><svg xmlns="http://www.w3.org/2000/svg" xmlns:xlink="http://www.w3.org/1999/xlink" version="1.1" id="mdi-hockey-sticks" width="24" height="24" viewBox="0 0 24 24"><path d="M7.58,3L5.05,4.61L9.04,10.87L10.82,8.08L7.58,3M16.43,3L7.5,17H2V21H8.5L18.96,4.61L16.43,3M14.97,14.59L13.19,17.38L15.5,21H22V17H16.5L14.97,14.59Z" /></svg>
